resources/ic_question.svg

<svg width="24" height="24" viewBox="0 0 24 24" fill="none" xmlns="http://www.w3.org/2000/svg">
<path fill-rule="evenodd" clip-rule="evenodd" d="M12 14.3452C12 13.6932 12.416 13.1382 12.997 12.9312L12 14.3452Z" fill="white"/>
<path d="M10 10.1049C10 9.00017 10.8953 8.10489 12 8.10489C13.1047 8.10489 14 9.00017 14 10.1049C14 10.9493 13.4769 11.6733 12.7326 11.9667C12.7087 11.9733 12.685 11.9808 12.6614 11.9892C11.6947 12.3336 11 13.257 11 14.3452C11 14.8975 11.4477 15.3452 12 15.3452C12.5523 15.3452 13 14.8975 13 14.3452C13 14.147 13.1157 13.9735 13.2858 13.8926C13.3009 13.8881 13.3159 13.8831 13.3309 13.8778C14.8849 13.3292 16 11.8492 16 10.1049C16 7.8956 14.2093 6.10489 12 6.10489C9.79072 6.10489 8 7.8956 8 10.1049C8 10.6572 8.44772 11.1049 9 11.1049C9.55228 11.1049 10 10.6572 10 10.1049Z" fill="#FFFFFF"/>
<path d="M12 18.3901C12.552 18.3901 13 17.9421 13 17.3901C13 16.8381 12.552 16.3901 12 16.3901C11.448 16.3901 11 16.8381 11 17.3901C11 17.9421 11.448 18.3901 12 18.3901Z" fill="#FFFFFF"/>
<path fill-rule="evenodd" clip-rule="evenodd" d="M12 2C6.47672 2 2 6.47672 2 12C2 17.5233 6.47672 22 12 22C17.5233 22 22 17.5233 22 12C22 6.47672 17.5233 2 12 2ZM4 12C4 7.58128 7.58128 4 12 4C16.4187 4 20 7.58128 20 12C20 16.4187 16.4187 20 12 20C7.58128 20 4 16.4187 4 12Z" fill="#FFFFFF"/>
</svg>

<svg width="24" height="24" fill="none" xmlns="http://www.w3.org/2000/svg"><path fill-rule="evenodd" clip-rule="evenodd" d="M12 14.345c0-.652.416-1.207.997-1.414L12 14.345z" fill="#fff"/><path d="M10 10.105a2 2 0 1 1 2.733 1.862A2.501 2.501 0 0 0 11 14.346a1 1 0 1 0 2 0c0-.199.116-.373.286-.453A4 4 0 1 0 8 10.105a1 1 0 1 0 2 0zM12 18.39a1 1 0 1 0 0-2 1 1 0 0 0 0 2z" fill="#FFF"/><path fill-rule="evenodd" clip-rule="evenodd" d="M12 2C6.477 2 2 6.477 2 12s4.477 10 10 10 10-4.477 10-10S17.523 2 12 2zM4 12a8 8 0 0 1 8-8 8 8 0 0 1 8 8 8 8 0 0 1-8 8 8 8 0 0 1-8-8z" fill="#FFF"/></svg>
